X: 5
T: The Night Before Larry Was Stretched
R: slip jig
M: 9/8
L: 1/8
K: Gmin
|:BAG GDG G2 B|AGF FCF ABc|BAG GDG G2 B|ABc cdB AGF:|
|:Bcd ded f2d|Bcd def ecA|Bcd ded d2d|edc cdB AGF:|


Tune 4712	Setting 4712

